!!!COA:	Josquin des Prez
!!!CDT:	~1450-1521/08/27
!!!COM2: Pipelare, Matthaeus
!!!CDT2: ~1450///-~1515///
!!!OPR:	Missa Mi mi
!!!ONM:	5
!!!OTL:	Agnus Dei
!!!AGN:	Mass; Agnus Dei
!!!SCT:	Jos9901
!!!voices:	4
!!!voices-OPR:	4
**kern	**kern	**kern	**kern
*staff4	*staff3	*staff2	*staff1
*Ivox	*Ivox	*Ivox	*Ivox
*I"Bassus	*I"Tenor	*I"Altus	*I"Superius
*I'B	*I'T	*I'A	*I'S
*>[A,B,C]	*>[A,B,C]	*>[A,B,C]	*>[A,B,C]
*>A	*>A	*>A	*>A
*clefF4	*clefGv2	*clefGv2	*clefG2
*k[]	*k[]	*k[]	*k[]
*M3/1	*M3/1	*M3/1	*M3/1
*met(O)	*met(O)	*met(O)	*met(O)
!!section: Agnus Dei I
!!!OMD: Agnus Dei I
=1-	=1-	=1-	=1-
0.r	0.r	0.E	[0.e
=2	=2	=2	=2
0.r	1.E	0.G	0e]
.	4D/	.	.
.	4C/	.	.
.	1BB	.	1d
=3	=3	=3	=3
0.r	1AA	0.A	1c
.	1C	.	1e
.	1D	.	1f
=4	=4	=4	=4
0.r	0E	0G	0g
.	1F	1c	1a
=5	=5	=5	=5
0.r	2r	2B\	2g/
.	1F	1A	2.f/
.	.	.	4e/
.	2C/	2G/	1e
.	1D	1F	.
.	.	.	2d/
=6	=6	=6	=6
0.r	2r	0E	0.e
.	2.G/	.	.
.	4A/	.	.
.	2B\	.	.
.	2c\	1r	.
.	4B\	.	.
.	4A/	.	.
=7	=7	=7	=7
0.r	0G	0B	1r
.	.	.	1r
.	1C	1c	1e
=8	=8	=8	=8
0E	1G	2B\	0.g
.	.	2.e\	.
.	2r	.	.
.	.	4d\	.
.	1G	2c\	.
1E	.	1B	.
.	2E/	.	.
=9	=9	=9	=9
0AA	2F/	0.A	[0.a
.	2E/	.	.
.	1C	.	.
2r	2r	.	.
[2AA/	[2C/	.	.
=10	=10	=10	=10
4AA/]	4C/]	1r	0.a]
4BB/	4D/	.	.
2C/	2E/	.	.
2D\	2F/	1A	.
2C/	2E/	.	.
1AA	1C	1c	.
=11	=11	=11	=11
0.E	1r	1B	[0.g
.	1r	2.G/	.
.	.	4A/	.
.	[1G	2B\	.
.	.	2c\	.
=12	=12	=12	=12
2r	0.G]	2B\	0.g]
2.G\	.	2.e\	.
4F\	.	4d\	.
4E\	.	1d	.
4D\	.	.	.
1E	.	.	.
.	.	2c#i\	.
=13	=13	=13	=13
1D	2.A/	1d	2f/
.	.	.	2.a/
.	4B\	.	.
1r	4c\	1r	.
.	4B\	.	4g/
.	4A/	.	1g
.	4G/	.	.
1D	1A	1d	.
.	.	.	2f#i/
=14	=14	=14	=14
0E	0G	0B	0g
1C	1E	1c	1g
=15	=15	=15	=15
1D	1F	0A	1f
0AA	2C/	.	0e
.	2.c\	.	.
.	.	1A	.
.	4B\	.	.
.	2A/	.	.
=16	=16	=16	=16
2r	2G/	2B\	0.r
1AA	2.A/	2.c\	.
.	8G/L	8B/L	.
.	8F/J	8A/J	.
2C/	4E/	4G/	.
.	4F/	4A/	.
2BB/	2G/	2B\	.
2AA/	[2A/	[2c\	.
=17	=17	=17	=17
1C	4A/]	4c\]	0.r
.	4B\	4B\	.
.	2c\	2A/	.
1D	4B\	4G/	.
.	2A/	2F/	.
.	8G/L	8E/L	.
.	8F/J	8D/J	.
1E	1G	2.C/	.
.	.	4D/	.
=18	=18	=18	=18
2r	1.C	4E/	1r
.	.	4C/	.
1E	.	2.c\	.
.	.	.	1r
.	.	4B\	.
2F\	2D/	2A/	.
2E\	1E	2G/	1e
2C/	.	2c\	.
=19	=19	=19	=19
4D\	1F	4B\	0d
4C/	.	4A/	.
4BB/	.	1A	.
4AA/	.	.	.
1BB	1D	.	.
.	.	2G#i/	.
2.AA/	2E/	[1A	2.c/
.	2F/	.	.
4BB/	.	.	4d/
=20	=20	=20	=20
2C/	2E/	1A]	2e/
2.D\	2D/	.	2.f/
.	1F	1A	.
4C/	.	.	4e/
4BB/	.	.	4d/
4AA/	.	.	4c/
1GG	1G	1B	2B/
.	.	.	2g/
=21	=21	=21	=21
1r	1.A	1.c	2f/
.	.	.	4e/
.	.	.	2f/
1r	.	.	.
.	.	.	4e/
.	2G/	2B\	1e
1D	1F	1A	.
.	.	.	2d/
=22	=22	=22	=22
2C/	[0.El	1r	[0.el
1AA	.	.	.
.	.	1A	.
4GG/	.	.	.
4FF/	.	.	.
1EE	.	2.G/	.
.	.	4A/	.
=23	=23	=23	=23
0.El	0.E]	0.Bl	0.e]
!!LO:LB:i:g=z
=24||	=24||	=24||	=24||
*>B	*>B	*>B	*>B
*clefF4	*clefGv2	*clefGv2	*clefG2
*k[]	*k[]	*k[]	*k[]
*M2/1	*M2/1	*M2/1	*M2/1
*met(C2)	*met(C2)	*met(C2)	*met(C2)
!!section: Agnus Dei II
!!!OMD: Agnus Dei II
0r	0E	1B	0g
.	.	1c	.
=25.	=25.	=25.	=25.
0r	0E	1B	0g
.	.	[1e	.
=26	=26	=26	=26
0r	0F	2e\]	0a
.	.	4d\	.
.	.	4c\	.
.	.	1d	.
=27.	=27.	=27.	=27.
0r	0E	1e	0g
.	.	2r	.
.	.	[2e\	.
=28	=28	=28	=28
0r	1r	4e\]	0r
.	.	4d\	.
.	.	4c\	.
.	.	4B\	.
.	1A	1c	.
=29.	=29.	=29.	=29.
0r	2G/	2B\	0r
.	1F	1A	.
.	4E/	4G/	.
.	4D/	4F/	.
=30	=30	=30	=30
0r	2.C/	2.E/	0r
.	4D/	4F/	.
.	4E/	4G/	.
.	4C/	4E/	.
.	[2F/	[2A/	.
=31.	=31.	=31.	=31.
0r	2F/]	2A/]	0r
.	1E	2G/	.
.	.	1F	.
.	2D/	.	.
=32	=32	=32	=32
0r	1E	1E	0r
.	2r	2r	.
.	[2C/	[2E/	.
=33.	=33.	=33.	=33.
0r	4C/]	4E/]	0r
.	4D/	4F/	.
.	4E/	4G/	.
.	4F/	4A/	.
.	2G/	2B\	.
.	2A/	2c\	.
=34	=34	=34	=34
0r	2E/	2B\	0r
.	2G/	1e	.
.	1F	.	.
.	.	2d\	.
=35.	=35.	=35.	=35.
0r	4E/	1e	0r
.	4F/	.	.
.	4G/	.	.
.	4A/	.	.
.	2B\	2r	.
.	[2c\	[2e\	.
=36	=36	=36	=36
0r	2c\]	2e\]	0r
.	2d\	2f\	.
.	2B\	2d\	.
.	[2c\	[2e\	.
=37.	=37.	=37.	=37.
0r	4c\]	2e\]	0r
.	4B\	.	.
.	1A	4d\	.
.	.	4c\	.
.	.	1B	.
.	2G/	.	.
=38	=38	=38	=38
0r	2A/	1A	0r
.	4G/	.	.
.	4F/	.	.
.	2E/	2r	.
.	[2F/	[2A/	.
=39.	=39.	=39.	=39.
0r	2F/]	2A/]	0r
.	2G/	2B\	.
.	2E/	2G/	.
.	[2F/	[2A/	.
=40	=40	=40	=40
0r	4F/]	2A/]	0r
.	4E/	.	.
.	1D	4G/	.
.	.	4F/	.
.	.	1E	.
.	2C#i/	.	.
=41.	=41.	=41.	=41.
0r	2.D/	1D	0r
.	4E/	.	.
.	4F/	2r	.
.	4G/	.	.
.	[2A/	[2D/	.
=42	=42	=42	=42
0r	4A/]	4D/]	0r
.	4G/	4E/	.
.	4F/	4F/	.
.	4E/	4G/	.
.	2F/	2A/	.
.	2G/	2B\	.
=43.	=43.	=43.	=43.
0r	2E/	2c\	0r
.	2F/	2d\	.
.	2G/	2e\	.
.	2A/	[2f\	.
=44	=44	=44	=44
0r	2F/	4f\]	0r
.	.	4e\	.
.	1G	4d\	.
.	.	4c\	.
.	.	2B\	.
.	2D/	[2A/	.
=45.	=45.	=45.	=45.
0r	2F/	2A/]	0r
.	2G/	1d	.
.	1E	.	.
.	.	2c#i\	.
=46	=46	=46	=46
0r	[0D	1d	[0f
.	.	2r	.
.	.	[2d\	.
=47.	=47.	=47.	=47.
0r	1D]	4d\]	1f]
.	.	4c\	.
.	.	2d\	.
.	[1E	2B\	[1g
.	.	2e\	.
=48	=48	=48	=48
0r	0E]	2r	0g]
.	.	2.e\	.
.	.	4d\	.
.	.	2e\	.
=49.	=49.	=49.	=49.
0r	[0F	2c\	[0a
.	.	2f\	.
.	.	2r	.
.	.	[2f\	.
=50	=50	=50	=50
0r	1F]	2f\]	1a]
.	.	2d\	.
.	[1E	1e	[1g
=51.	=51.	=51.	=51.
0r	0E]	2r	0g]
.	.	1e	.
.	.	2c\	.
=52	=52	=52	=52
0r	0D	2d\	0f
.	.	4c\	.
.	.	4B\	.
.	.	1A	.
=53.	=53.	=53.	=53.
0r	0E	2.G/	[0g
.	.	4A/	.
.	.	2B\	.
.	.	[2c\	.
=54	=54	=54	=54
0r	1r	2c\]	0g_
.	.	4B\	.
.	.	4A/	.
.	1E	1B	.
=55.	=55.	=55.	=55.
0r	2.G/	2.B\	0g_
.	4A/	4c\	.
.	2B\	2d\	.
.	[2c\	[2e\	.
=56	=56	=56	=56
0r	2c\]	2e\]	0g]
.	4B\	4d\	.
.	4A/	4c\	.
.	2B\	2d\	.
.	2c\	2e\	.
=57.	=57.	=57.	=57.
0r	1G	2d\	[0g
.	.	2B\	.
.	2r	2c\	.
.	[2G/	2d\	.
=58	=58	=58	=58
0r	4G/]	2B\	0g]
.	4F/	.	.
.	4E/	2.e\	.
.	4D/	.	.
.	1C	.	.
.	.	4d\	.
.	.	4c\	.
.	.	4B\	.
=59.	=59.	=59.	=59.
0r	1D	2A/	[0f
.	.	2B\	.
.	2r	2A/	.
.	[2D/	[2d\	.
=60	=60	=60	=60
0r	4D/]	2d\]	0f_
.	4E/	.	.
.	4F/	4c\	.
.	4G/	4B\	.
.	2A/	2c\	.
.	2D/	2d\	.
=61.	=61.	=61.	=61.
0r	2r	2r	0f]
.	2.F/	2.A/	.
.	4G/	4B\	.
.	4A/	4c\	.
.	4B\	4d\	.
=62	=62	=62	=62
0r	2c\	2e\	0e
.	4B\	4d\	.
.	4A/	4c\	.
.	2G/	2B\	.
.	[2A/	[2c\	.
=63.	=63.	=63.	=63.
0r	2A/]	2c\]	0e
.	2E/	2G/	.
.	2G/	2B\	.
.	2A/	2c\	.
=64	=64	=64	=64
0r	2E/	2.G/	0r
.	1G	.	.
.	.	4A/	.
.	.	4B\	.
.	.	4c\	.
.	2F/	[2d\	.
=65.	=65.	=65.	=65.
0r	2E/	2d\]	0r
.	4D/	1c	.
.	4C/	.	.
.	1D	.	.
.	.	2B\	.
=66	=66	=66	=66
0r	2C/	1c	[0e
.	2.c\	.	.
.	.	2r	.
.	4B\	.	.
.	2A/	2c\	.
=67.	=67.	=67.	=67.
0r	2G/	2B\	0e]
.	2A/	2A/	.
.	2E/	1B	.
.	[2G/	.	.
=68	=68	=68	=68
0r	2G/]	2r	[0d
.	4F/	2B\	.
.	4E/	.	.
.	2F/	2A/	.
.	2G/	2G/	.
=69.	=69.	=69.	=69.
0r	2D/	1A	0d]
.	1F	.	.
.	.	2r	.
.	4E/	2A/	.
.	4D/	.	.
=70	=70	=70	=70
0r	2E/	2G/	[0c
.	2F/	2F/	.
.	2.C/	1G	.
.	4D/	.	.
=71.	=71.	=71.	=71.
0r	2E/	2r	1c]
.	1F	1A	.
.	.	.	1d
.	2G/	2B\	.
=72	=72	=72	=72
0r	2.E/	2.G/	[0e
.	4F/	4A/	.
.	2G/	2B\	.
.	[2A/	[2c\	.
=73.	=73.	=73.	=73.
0r	2A/]	2c\]	0e]
.	4G/	4B\	.
.	4F/	4A/	.
.	2G/	2B\	.
.	2A/	2c\	.
=74	=74	=74	=74
0r	0El	0Bl	0el
!!LO:LB:i:g=z
=75||	=75||	=75||	=75||
*>C	*>C	*>C	*>C
*clefF4	*clefGv2	*clefGv2	*clefG2
*k[]	*k[]	*k[]	*k[]
*	*	*	*rscale:1/2
*M2/1	*M2/1	*M2/1	*M2/0
*met(C|)	*met(C2)	*met(C2)	*met(C2)
!!primary-mensuration: met(C2)
!!!OMD: Agnus Dei III
!!section: Agnus Dei III
!	!	!	!LO:TX:Z=8:t=Canon&colon; Crescit in duplo
!	!	!	!LO:N:vis=0
0r	0r	2.E/	[y0e
.	.	4F/	.
.	.	4G/	.
.	.	4E/	.
.	.	[2A/	.
=76.	=76.	=76.	=76-
0r	0r	2A/]	0e]yy
.	.	2G/	.
.	.	1A	.
=77	=77	=77	=77.
!	!	!	!LO:N:vis=0
0r	2.D/	2r	[y0d
.	.	1A	.
.	4E/	.	.
.	4F/	.	.
.	4D/	.	.
.	[2G/	2B\	.
=78.	=78.	=78.	=78-
0r	2G/]	2G/	0d]yy
.	2F/	2A/	.
.	1G	1B	.
=79	=79	=79	=79
!	!	!	!LO:N:vis=0
2.C/	2r	0r	[y0c
.	1G	.	.
4D\	.	.	.
4E\	.	.	.
4C/	.	.	.
[2F\	2A/	.	.
=80.	=80.	=80.	=80-
2F\]	2F/	0r	0c]yy
2E\	2G/	.	.
1F	1A	.	.
=81	=81	=81	=81.
!	!	!	!LO:N:vis=0
2r	0r	2r	[y0d
1D	.	1A	.
[2G\	.	2B\	.
=82.	=82.	=82.	=82-
2G\]	0r	2G/	0d]yy
2F\	.	2A/	.
1G	.	1B	.
=83	=83	=83	=83
!	!	!	!LO:N:vis=0
2r	2r	0r	[y0e
1E	1B	.	.
[2A\	2c\	.	.
=84.	=84.	=84.	=84-
2A\]	2A/	0r	0e]yy
2G\	2B\	.	.
1A	1c	.	.
=85	=85	=85	=85.
!	!	!	!LO:N:vis=0
1.AA	0r	2r	[y0e
.	.	1A	.
[2C/	.	2G/	.
=86.	=86.	=86.	=86-
1C]	1.r	2A/	0e]yy
.	.	2c\	.
[1E	.	1B	.
.	[2G/	.	.
=87	=87	=87	=87
!	!	!	!LO:N:vis=0
2E\]	2G/]	0r	[y0e
1.AA	2A/	.	.
.	1E	.	.
=88.	=88.	=88.	=88-
1.C	0r	2r	0e]yy
.	.	1c	.
[2E\	.	2B\	.
=89	=89	=89	=89.
!	!	!	!LO:N:vis=0
1E]	1.r	2c\	[y0g
.	.	2e\	.
[1G	.	1d	.
.	[2B\	.	.
=90.	=90.	=90.	=90-
2G\]	2B\]	0r	0g]yy
1.C	2c\	.	.
.	1G	.	.
=91	=91	=91	=91
!	!	!	!LO:N:vis=0
2.F\	2r	2r	[y0a
.	1F	2c\	.
4E\	.	.	.
2D\	.	2d\	.
2C/	2E/	2e\	.
=92.	=92.	=92.	=92-
2D\	2D/	2f\	0a]yy
2AA/	1E	1e	.
2C/	.	.	.
2D\	2F/	2d\	.
=93	=93	=93	=93.
!	!	!	!LO:N:vis=0
2.E\	2G/	2r	[y0g
.	1E	2B\	.
4D\	.	.	.
2C/	.	2c\	.
2BB/	2D/	2d\	.
=94.	=94.	=94.	=94-
2C/	2C/	2e\	0g]yy
2GG/	1D	1d	.
2BB/	.	.	.
2C/	2E/	2c\	.
=95	=95	=95	=95
!	!	!	!LO:N:vis=0
0D	2F/	2A/	[y0f
.	2D/	2B\	.
.	2r	2A/	.
.	[2D/	[2d\	.
=96.	=96.	=96.	=96-
0r	4D/]	2d\]	0f]yy
.	4E/	.	.
.	4F/	4c\	.
.	4G/	4B\	.
.	2A/	2c\	.
.	2D/	2d\	.
=97	=97	=97	=97.
!	!	!	!LO:N:vis=0
0r	1E	2B\	[y0g
.	.	2c\	.
.	2r	2B\	.
.	[2E/	[2e\	.
=98.	=98.	=98.	=98-
0r	4E/]	2e\]	0g]yy
.	4F/	.	.
.	4G/	4d\	.
.	4A/	4c\	.
.	2B\	2d\	.
.	2E/	2e\	.
=99	=99	=99	=99
!	!	!	!LO:N:vis=0
0r	1G	1B	[y0g
.	2r	2r	.
.	[2G/	[2e\	.
=100.	=100.	=100.	=100-
0r	4G/]	4e\]	0g]yy
.	4F/	4d\	.
.	4E/	4c\	.
.	4D/	4B\	.
.	1E	2c\	.
.	.	4B\	.
.	.	4c\	.
=101	=101	=101	=101.
!	!	!	!LO:N:vis=0
0r	1D	2d\	[y0f
.	.	4c\	.
.	.	4B\	.
.	2r	2A/	.
.	[2F/	[2d\	.
=102.	=102.	=102.	=102-
0r	4F/]	4d\]	0f]yy
.	4E/	4c\	.
.	4D/	4B\	.
.	4C/	4A/	.
.	1D	2B\	.
.	.	4A/	.
.	.	4B\	.
=103	=103	=103	=103
!	!	!	!LO:N:vis=0
2r	1C	2c\	[y0e
2G\	.	4B\	.
.	.	4A/	.
2E\	2r	1G	.
2G\	2C/	.	.
=104.	=104.	=104.	=104-
1C	2E/	2r	0e]yy
.	2F/	1c	.
2r	1G	.	.
2E\	.	2B\	.
=105	=105	=105	=105.
!	!	!	!LO:N:vis=0
2C/	2r	2c\	[y0e
2E\	2C/	2G/	.
1AA	2.E/	2A/	.
.	.	4G/	.
.	4F/	4F/	.
=106.	=106.	=106.	=106-
2r	2G/	1E	0e]yy
2.AA/	2A/	.	.
.	2E/	2r	.
4BB/	.	.	.
4C/	2A/	[2C/	.
4D\	.	.	.
=107	=107	=107	=107
!	!	!	!LO:N:vis=0
2E\	2G/	4C/]	[y0e
.	.	4D/	.
2AA/	2A/	4E/	.
.	.	4F/	.
2r	1E	2G/	.
[2C/	.	2C/	.
=108.	=108.	=108.	=108-
4C/]	1r	2r	0e]yy
4D\	.	.	.
4E\	.	2c\	.
4F\	.	.	.
2G\	2r	2B\	.
2C/	2E/	2c\	.
=109	=109	=109	=109.
!	!	!	!LO:N:vis=0
2r	2F/	2A/	[y0d
2D\	1D	1d	.
2BB/	.	.	.
2GG/	[2G/	4c\	.
.	.	4B\	.
=110.	=110.	=110.	=110-
1D	2G/]	1A	0d]yy
.	2F#i/	.	.
1GG	1G	1G	.
=111	=111	=111	=111
!	!	!	!LO:N:vis=0
2r	2.C/	2r	[y0c
2C/	.	1c	.
.	4D/	.	.
2AA/	4E/	.	.
.	4C/	.	.
2FF/	[2F/	4B\	.
.	.	4A/	.
=112.	=112.	=112.	=112-
1C	2F/]	1G	0c]yy
.	2E/	.	.
1FF	2F/	1F	.
.	2A/	.	.
=113	=113	=113	=113.
!	!	!	!LO:N:vis=0
0r	2.D/	2r	[y0d
.	.	1A	.
.	4E/	.	.
.	2F/	.	.
.	[2G/	2B\	.
=114.	=114.	=114.	=114-
0r	2G/]	2G/	0d]yy
.	2D/	2A/	.
.	2F/	2A/	.
.	2G/	2B\	.
=115	=115	=115	=115
!	!	!	!LO:N:vis=0
2r	1E	2G/	[y0e
2.AA/	.	2A/	.
.	2r	1E	.
4BB/	.	.	.
4C/	[2C/	.	.
4D\	.	.	.
=116.	=116.	=116.	=116-
2E\	4C/]	2r	0e]yy
.	4D/	.	.
2AA/	4E/	2C/	.
.	4F/	.	.
2r	2G/	2.E/	.
[2C/	2C/	.	.
.	.	4F/	.
=117	=117	=117	=117.
4C/]	2r	2G/	[0el
4BB/	.	.	.
2AA/	2C/	2A/	.
2GG/	2BB/	1E	.
2AA/	2AA/	.	.
=118.	=118.	=118.	=118-
1EE	1BB	2r	0e_
.	.	2.G/	.
1r	1C	.	.
.	.	4F/	.
.	.	4E/	.
.	.	4D/	.
=119	=119	=119	=119
0EEl	0BBl	0El	0e]
*	*	*	*rscale:1
==	==	==	==
*-	*-	*-	*-
!!!RDF**kern: l=long note in original notation
!!!RDF**kern: i=editorial accidental
!!!ENC:	Jesse Rodin; Victoria Chang 2012/02/15
!!!END:	2012/02/15/
!!!EED:	Jesse Rodin
!!!EEV:	2012/08/08/
!!attribution-level@Jos: 5 (doubtful)
!!!ONB:	Translated from MusicXML and edited on 2012/08/08/ by Craig Sapp
!!muse2ps: T^@{OPR}^u^@{ONM}{. }@{OTL}^C^Pipelare/Josquin?\n@{SCT}^i2I150v90,90,90,150c140
